docs/public/img/providers/nodemailer.svg

<?xml version="1.0" encoding="UTF-8"?>
<!DOCTYPE svg PUBLIC "-//W3C//DTD SVG 1.1//EN" "http://www.w3.org/Graphics/SVG/1.1/DTD/svg11.dtd">
<svg xmlns="http://www.w3.org/2000/svg" xmlns:xlink="http://www.w3.org/1999/xlink" version="1.1" width="200px" height="136px" style="shape-rendering:geometricPrecision; text-rendering:geometricPrecision; image-rendering:optimizeQuality; fill-rule:evenodd; clip-rule:evenodd">
<g><path style="opacity:0.977" fill="#22b572" d="M -0.5,-0.5 C -0.166667,-0.5 0.166667,-0.5 0.5,-0.5C 27.1959,30.5252 53.8626,61.5252 80.5,92.5C 80.5,93.1667 80.5,93.8333 80.5,94.5C 53.5,94.5 26.5,94.5 -0.5,94.5C -0.5,62.8333 -0.5,31.1667 -0.5,-0.5 Z"/></g>
<g><path style="opacity:0.984" fill="#28aae1" d="M 80.5,-0.5 C 80.8333,-0.5 81.1667,-0.5 81.5,-0.5C 101.177,22.2071 120.843,44.8738 140.5,67.5C 140.709,68.9217 141.209,70.255 142,71.5C 149.109,78.7652 155.609,86.4319 161.5,94.5C 134.5,94.5 107.5,94.5 80.5,94.5C 80.5,93.8333 80.5,93.1667 80.5,92.5C 80.5,61.5 80.5,30.5 80.5,-0.5 Z"/></g>
<g><path style="opacity:0.996" fill="#0e9ccd" d="M 198.5,-0.5 C 198.833,-0.5 199.167,-0.5 199.5,-0.5C 199.5,31.1667 199.5,62.8333 199.5,94.5C 186.833,94.5 174.167,94.5 161.5,94.5C 155.609,86.4319 149.109,78.7652 142,71.5C 141.209,70.255 140.709,68.9217 140.5,67.5C 160.208,45.1274 179.541,22.4607 198.5,-0.5 Z"/></g>
</svg>

<svg fill-rule="evenodd" clip-rule="evenodd" image-rendering="optimizeQuality" shape-rendering="geometricPrecision" text-rendering="geometricPrecision" viewBox="0 0 200 136"><path fill="#22b572" d="M-.5-.5h1l80 93v2h-81v-95Z"/><path fill="#28aae1" d="M80.5-.5h1l59 68c.2 1.4.7 2.8 1.5 4 7.1 7.3 13.6 15 19.5 23h-81v-95Z"/><path fill="#0e9ccd" d="M198.5-.5h1v95h-38c-5.9-8-12.4-15.7-19.5-23a9.7 9.7 0 0 1-1.5-4c19.7-22.4 39-45 58-68Z"/></svg>
